static/img/kroki/6cbd4019f3b9bc1284703fdfd8e21058.svg

<?xml version="1.0" encoding="us-ascii" standalone="no"?><svg xmlns="http://www.w3.org/2000/svg" xmlns:xlink="http://www.w3.org/1999/xlink" contentStyleType="text/css" height="252px" preserveAspectRatio="none" style="width:1271px;height:252px;" version="1.1" viewBox="0 0 1271 252" width="1271px" zoomAndPan="magnify"><defs/><g><!--class azure_express_route_gateway--><g id="elem_azure_express_route_gateway"><rect codeLine="22" fill="#3D176E" height="39.7891" id="azure_express_route_gateway" rx="2.5" ry="2.5" style="stroke:#000D19;stroke-width:0.5;" width="295" x="7" y="7"/><ellipse cx="22" cy="26.8945" fill="#ADD1B2" rx="11" ry="11" style="stroke:#181818;stroke-width:1.0;"/><path d="M24.9688,32.5352 Q24.3906,32.832 23.75,32.9727 Q23.1094,33.1289 22.4063,33.1289 Q19.9063,33.1289 18.5781,31.4883 Q17.2656,29.832 17.2656,26.707 Q17.2656,23.582 18.5781,21.9258 Q19.9063,20.2695 22.4063,20.2695 Q23.1094,20.2695 23.75,20.4258 Q24.4063,20.582 24.9688,20.8789 L24.9688,23.5977 Q24.3438,23.0195 23.75,22.7539 Q23.1563,22.4727 22.5313,22.4727 Q21.1875,22.4727 20.5,23.5508 Q19.8125,24.6133 19.8125,26.707 Q19.8125,28.8008 20.5,29.8789 Q21.1875,30.9414 22.5313,30.9414 Q23.1563,30.9414 23.75,30.6758 Q24.3438,30.3945 24.9688,29.8164 L24.9688,32.5352 Z " fill="#000000"/><text fill="#D9B8FF" font-family="Helvetica" font-size="17" lengthAdjust="spacing" textLength="253" x="41" y="32.7798">azure_express_route_gateway</text></g><!--class azure_firewall--><g id="elem_azure_firewall"><rect codeLine="24" fill="#3D176E" height="39.7891" id="azure_firewall" rx="2.5" ry="2.5" style="stroke:#000D19;stroke-width:0.5;" width="160" x="336.5" y="7"/><ellipse cx="351.5" cy="26.8945" fill="#ADD1B2" rx="11" ry="11" style="stroke:#181818;stroke-width:1.0;"/><path d="M354.4688,32.5352 Q353.8906,32.832 353.25,32.9727 Q352.6094,33.1289 351.9063,33.1289 Q349.4063,33.1289 348.0781,31.4883 Q346.7656,29.832 346.7656,26.707 Q346.7656,23.582 348.0781,21.9258 Q349.4063,20.2695 351.9063,20.2695 Q352.6094,20.2695 353.25,20.4258 Q353.9063,20.582 354.4688,20.8789 L354.4688,23.5977 Q353.8438,23.0195 353.25,22.7539 Q352.6563,22.4727 352.0313,22.4727 Q350.6875,22.4727 350,23.5508 Q349.3125,24.6133 349.3125,26.707 Q349.3125,28.8008 350,29.8789 Q350.6875,30.9414 352.0313,30.9414 Q352.6563,30.9414 353.25,30.6758 Q353.8438,30.3945 354.4688,29.8164 L354.4688,32.5352 Z " fill="#000000"/><text fill="#D9B8FF" font-family="Helvetica" font-size="17" lengthAdjust="spacing" textLength="118" x="370.5" y="32.7798">azure_firewall</text></g><!--class azure_p2_s_vpn_gateway--><g id="elem_azure_p2_s_vpn_gateway"><rect codeLine="26" fill="#3D176E" height="39.7891" id="azure_p2_s_vpn_gateway" rx="2.5" ry="2.5" style="stroke:#000D19;stroke-width:0.5;" width="256" x="531.5" y="7"/><ellipse cx="546.5" cy="26.8945" fill="#ADD1B2" rx="11" ry="11" style="stroke:#181818;stroke-width:1.0;"/><path d="M549.4688,32.5352 Q548.8906,32.832 548.25,32.9727 Q547.6094,33.1289 546.9063,33.1289 Q544.4063,33.1289 543.0781,31.4883 Q541.7656,29.832 541.7656,26.707 Q541.7656,23.582 543.0781,21.9258 Q544.4063,20.2695 546.9063,20.2695 Q547.6094,20.2695 548.25,20.4258 Q548.9063,20.582 549.4688,20.8789 L549.4688,23.5977 Q548.8438,23.0195 548.25,22.7539 Q547.6563,22.4727 547.0313,22.4727 Q545.6875,22.4727 545,23.5508 Q544.3125,24.6133 544.3125,26.707 Q544.3125,28.8008 545,29.8789 Q545.6875,30.9414 547.0313,30.9414 Q547.6563,30.9414 548.25,30.6758 Q548.8438,30.3945 549.4688,29.8164 L549.4688,32.5352 Z " fill="#000000"/><text fill="#D9B8FF" font-family="Helvetica" font-size="17" lengthAdjust="spacing" textLength="214" x="565.5" y="32.7798">azure_p2_s_vpn_gateway</text></g><!--class azure_public_ip_address--><g id="elem_azure_public_ip_address"><rect codeLine="28" fill="#3D176E" height="39.7891" id="azure_public_ip_address" rx="2.5" ry="2.5" style="stroke:#000D19;stroke-width:0.5;" width="242" x="538.5" y="206.58"/><ellipse cx="553.5" cy="226.4745" fill="#ADD1B2" rx="11" ry="11" style="stroke:#181818;stroke-width:1.0;"/><path d="M556.4688,232.1152 Q555.8906,232.412 555.25,232.5527 Q554.6094,232.7089 553.9063,232.7089 Q551.4063,232.7089 550.0781,231.0683 Q548.7656,229.412 548.7656,226.287 Q548.7656,223.162 550.0781,221.5058 Q551.4063,219.8495 553.9063,219.8495 Q554.6094,219.8495 555.25,220.0058 Q555.9063,220.162 556.4688,220.4589 L556.4688,223.1777 Q555.8438,222.5995 555.25,222.3339 Q554.6563,222.0527 554.0313,222.0527 Q552.6875,222.0527 552,223.1308 Q551.3125,224.1933 551.3125,226.287 Q551.3125,228.3808 552,229.4589 Q552.6875,230.5214 554.0313,230.5214 Q554.6563,230.5214 555.25,230.2558 Q555.8438,229.9745 556.4688,229.3964 L556.4688,232.1152 Z " fill="#000000"/><text fill="#D9B8FF" font-family="Helvetica" font-size="17" lengthAdjust="spacing" textLength="200" x="572.5" y="232.3598">azure_public_ip_address</text></g><!--class azure_virtual_hub--><g id="elem_azure_virtual_hub"><rect codeLine="30" fill="#3D176E" height="39.7891" id="azure_virtual_hub" rx="2.5" ry="2.5" style="stroke:#000D19;stroke-width:0.5;" width="193" x="563" y="106.79"/><ellipse cx="578" cy="126.6845" fill="#ADD1B2" rx="11" ry="11" style="stroke:#181818;stroke-width:1.0;"/><path d="M580.9688,132.3252 Q580.3906,132.622 579.75,132.7627 Q579.1094,132.9189 578.4063,132.9189 Q575.9063,132.9189 574.5781,131.2783 Q573.2656,129.622 573.2656,126.497 Q573.2656,123.372 574.5781,121.7158 Q575.9063,120.0595 578.4063,120.0595 Q579.1094,120.0595 579.75,120.2158 Q580.4063,120.372 580.9688,120.6689 L580.9688,123.3877 Q580.3438,122.8095 579.75,122.5439 Q579.1563,122.2627 578.5313,122.2627 Q577.1875,122.2627 576.5,123.3408 Q575.8125,124.4033 575.8125,126.497 Q575.8125,128.5908 576.5,129.6689 Q577.1875,130.7314 578.5313,130.7314 Q579.1563,130.7314 579.75,130.4658 Q580.3438,130.1845 580.9688,129.6064 L580.9688,132.3252 Z " fill="#000000"/><text fill="#D9B8FF" font-family="Helvetica" font-size="17" lengthAdjust="spacing" textLength="151" x="597" y="132.5698">azure_virtual_hub</text></g><!--class azure_virtual_wan--><g id="elem_azure_virtual_wan"><rect codeLine="32" fill="#3D176E" height="39.7891" id="azure_virtual_wan" rx="2.5" ry="2.5" style="stroke:#000D19;stroke-width:0.5;" width="197" x="823" y="7"/><ellipse cx="838" cy="26.8945" fill="#ADD1B2" rx="11" ry="11" style="stroke:#181818;stroke-width:1.0;"/><path d="M840.9688,32.5352 Q840.3906,32.832 839.75,32.9727 Q839.1094,33.1289 838.4063,33.1289 Q835.9063,33.1289 834.5781,31.4883 Q833.2656,29.832 833.2656,26.707 Q833.2656,23.582 834.5781,21.9258 Q835.9063,20.2695 838.4063,20.2695 Q839.1094,20.2695 839.75,20.4258 Q840.4063,20.582 840.9688,20.8789 L840.9688,23.5977 Q840.3438,23.0195 839.75,22.7539 Q839.1563,22.4727 838.5313,22.4727 Q837.1875,22.4727 836.5,23.5508 Q835.8125,24.6133 835.8125,26.707 Q835.8125,28.8008 836.5,29.8789 Q837.1875,30.9414 838.5313,30.9414 Q839.1563,30.9414 839.75,30.6758 Q840.3438,30.3945 840.9688,29.8164 L840.9688,32.5352 Z " fill="#000000"/><text fill="#D9B8FF" font-family="Helvetica" font-size="17" lengthAdjust="spacing" textLength="155" x="857" y="32.7798">azure_virtual_wan</text></g><!--class azure_vpn_gateway--><g id="elem_azure_vpn_gateway"><rect codeLine="34" fill="#3D176E" height="39.7891" id="azure_vpn_gateway" rx="2.5" ry="2.5" style="stroke:#000D19;stroke-width:0.5;" width="209" x="1055" y="7"/><ellipse cx="1070" cy="26.8945" fill="#ADD1B2" rx="11" ry="11" style="stroke:#181818;stroke-width:1.0;"/><path d="M1072.9688,32.5352 Q1072.3906,32.832 1071.75,32.9727 Q1071.1094,33.1289 1070.4063,33.1289 Q1067.9063,33.1289 1066.5781,31.4883 Q1065.2656,29.832 1065.2656,26.707 Q1065.2656,23.582 1066.5781,21.9258 Q1067.9063,20.2695 1070.4063,20.2695 Q1071.1094,20.2695 1071.75,20.4258 Q1072.4063,20.582 1072.9688,20.8789 L1072.9688,23.5977 Q1072.3438,23.0195 1071.75,22.7539 Q1071.1563,22.4727 1070.5313,22.4727 Q1069.1875,22.4727 1068.5,23.5508 Q1067.8125,24.6133 1067.8125,26.707 Q1067.8125,28.8008 1068.5,29.8789 Q1069.1875,30.9414 1070.5313,30.9414 Q1071.1563,30.9414 1071.75,30.6758 Q1072.3438,30.3945 1072.9688,29.8164 L1072.9688,32.5352 Z " fill="#000000"/><text fill="#D9B8FF" font-family="Helvetica" font-size="17" lengthAdjust="spacing" textLength="167" x="1089" y="32.7798">azure_vpn_gateway</text></g><!--link azure_express_route_gateway to azure_virtual_hub--><g id="link_azure_express_route_gateway_azure_virtual_hub"><path codeLine="36" d="M254.57,47.28 C344,64.59 468.2995,88.6591 556.7395,105.7891 " fill="none" id="azure_express_route_gateway-to-azure_virtual_hub" style="stroke:#1A83AF;stroke-width:2.0;"/><polygon fill="#1A83AF" points="562.63,106.93,554.5548,101.2916,557.7212,105.9792,553.0336,109.1456,562.63,106.93" style="stroke:#1A83AF;stroke-width:2.0;"/></g><!--link azure_firewall to azure_virtual_hub--><g id="link_azure_firewall_azure_virtual_hub"><path codeLine="37" d="M464.51,47.22 C507.11,64.36 563.4542,87.029 606.0242,104.169 " fill="none" id="azure_firewall-to-azure_virtual_hub" style="stroke:#1A83AF;stroke-width:2.0;"/><polygon fill="#1A83AF" points="611.59,106.41,604.7353,99.338,606.9518,104.5425,601.7473,106.7591,611.59,106.41" style="stroke:#1A83AF;stroke-width:2.0;"/></g><!--link azure_p2_s_vpn_gateway to azure_virtual_hub--><g id="link_azure_p2_s_vpn_gateway_azure_virtual_hub"><path codeLine="38" d="M659.5,47.22 C659.5,64.36 659.5,83.27 659.5,100.41 " fill="none" id="azure_p2_s_vpn_gateway-to-azure_virtual_hub" style="stroke:#1A83AF;stroke-width:2.0;"/><polygon fill="#1A83AF" points="659.5,106.41,663.5,97.41,659.5,101.41,655.5,97.41,659.5,106.41" style="stroke:#1A83AF;stroke-width:2.0;"/></g><!--link azure_virtual_hub to azure_public_ip_address--><g id="link_azure_virtual_hub_azure_public_ip_address"><path codeLine="39" d="M659.5,147.01 C659.5,164.15 659.5,183.06 659.5,200.2 " fill="none" id="azure_virtual_hub-to-azure_public_ip_address" style="stroke:#1A83AF;stroke-width:2.0;"/><polygon fill="#1A83AF" points="659.5,206.2,663.5,197.2,659.5,201.2,655.5,197.2,659.5,206.2" style="stroke:#1A83AF;stroke-width:2.0;"/></g><!--link azure_virtual_wan to azure_virtual_hub--><g id="link_azure_virtual_wan_azure_virtual_hub"><path codeLine="40" d="M869.74,47.22 C823.81,64.36 762.6707,87.1706 716.7807,104.3106 " fill="none" id="azure_virtual_wan-to-azure_virtual_hub" style="stroke:#1A83AF;stroke-width:2.0;"/><polygon fill="#1A83AF" points="711.16,106.41,720.9907,107.0081,715.8439,104.6605,718.1915,99.5138,711.16,106.41" style="stroke:#1A83AF;stroke-width:2.0;"/></g><!--link azure_vpn_gateway to azure_virtual_hub--><g id="link_azure_vpn_gateway_azure_virtual_hub"><path codeLine="41" d="M1060.42,47.28 C972.16,64.54 849.6884,88.4884 762.1484,105.6084 " fill="none" id="azure_vpn_gateway-to-azure_virtual_hub" style="stroke:#1A83AF;stroke-width:2.0;"/><polygon fill="#1A83AF" points="756.26,106.76,765.8604,108.9582,761.167,105.8003,764.3249,101.107,756.26,106.76" style="stroke:#1A83AF;stroke-width:2.0;"/></g><!--SRC=[ZP9HJy8m58NVzokQy4p290gyc209qHTYn3TZccwzPGrTkznsJ33-TpTHKrO6Uxtdkptdt3IJ70ZaXTkJ7F84q4PsAtN1aELaZcYgXL46oK089iQJjhWqsbq5LYm7yWXg1qwch4syPZBTQh2Mt7ZI0qkt6pIbviVd7J9jQmcqywY5OjREdKEPb0wyC7oMJ8Lea-r71sCUJ-uWm0nom5zaD1hnUDP6hbfTxFrFhEK1IEmVRMKS1343Yn_gOig6y486HV_qpepFZ7EfD-JMcxqSCw46F9clCyPDrT22AUlRM0S8nkqBM0IjO3RbOd8MVkg2q-PoX1rA10eV1TRVXjQO0xfX3Ygs9v_Hrmab9DPpfGAXkA6MxWhTkLcKYP8fbGMjJz4u1SHEeYkPebcPT6eLqw7MShtKP_WsYEVJyNpvFhmFRQDMoLvqqBpNbb_sp49mhIYyGp-Vti6-0G00]--></g></svg>

<svg xmlns="http://www.w3.org/2000/svg" width="1271" height="252" viewBox="0 0 1271 252"><rect width="295" height="39.789" x="7" y="7" fill="#3D176E" rx="2.5" ry="2.5" style="stroke:#000d19;stroke-width:.5"/><circle cx="22" cy="26.895" r="11" fill="#ADD1B2" style="stroke:#181818;stroke-width:1"/><path d="M24.969 32.535q-.578.297-1.219.438-.64.156-1.344.156-2.5 0-3.828-1.64-1.312-1.657-1.312-4.782t1.312-4.781q1.328-1.656 3.828-1.656.703 0 1.344.156.656.156 1.219.453v2.719q-.625-.578-1.219-.844-.594-.281-1.219-.281-1.343 0-2.031 1.078-.687 1.062-.687 3.156t.687 3.172q.688 1.062 2.031 1.062.625 0 1.219-.265.594-.281 1.219-.86z"/><text x="41" y="32.78" fill="#D9B8FF" font-family="Helvetica" font-size="17" textLength="253">azure_express_route_gateway</text><rect width="160" height="39.789" x="336.5" y="7" fill="#3D176E" rx="2.5" ry="2.5" style="stroke:#000d19;stroke-width:.5"/><circle cx="351.5" cy="26.895" r="11" fill="#ADD1B2" style="stroke:#181818;stroke-width:1"/><path d="M354.469 32.535q-.578.297-1.219.438-.64.156-1.344.156-2.5 0-3.828-1.64-1.312-1.657-1.312-4.782t1.312-4.781q1.328-1.656 3.828-1.656.703 0 1.344.156.656.156 1.219.453v2.719q-.625-.578-1.219-.844-.594-.281-1.219-.281-1.344 0-2.031 1.078-.687 1.062-.687 3.156t.687 3.172q.688 1.062 2.031 1.062.625 0 1.219-.265.594-.281 1.219-.86z"/><text x="370.5" y="32.78" fill="#D9B8FF" font-family="Helvetica" font-size="17" textLength="118">azure_firewall</text><rect width="256" height="39.789" x="531.5" y="7" fill="#3D176E" rx="2.5" ry="2.5" style="stroke:#000d19;stroke-width:.5"/><circle cx="546.5" cy="26.895" r="11" fill="#ADD1B2" style="stroke:#181818;stroke-width:1"/><path d="M549.469 32.535q-.578.297-1.219.438-.64.156-1.344.156-2.5 0-3.828-1.64-1.312-1.657-1.312-4.782t1.312-4.781q1.328-1.656 3.828-1.656.703 0 1.344.156.656.156 1.219.453v2.719q-.625-.578-1.219-.844-.594-.281-1.219-.281-1.343 0-2.031 1.078-.687 1.062-.687 3.156t.687 3.172q.688 1.062 2.031 1.062.625 0 1.219-.265.594-.281 1.219-.86z"/><text x="565.5" y="32.78" fill="#D9B8FF" font-family="Helvetica" font-size="17" textLength="214">azure_p2_s_vpn_gateway</text><rect width="242" height="39.789" x="538.5" y="206.58" fill="#3D176E" rx="2.5" ry="2.5" style="stroke:#000d19;stroke-width:.5"/><circle cx="553.5" cy="226.475" r="11" fill="#ADD1B2" style="stroke:#181818;stroke-width:1"/><path d="M556.469 232.115q-.578.297-1.219.438-.64.156-1.344.156-2.5 0-3.828-1.64-1.312-1.657-1.312-4.782t1.312-4.781q1.328-1.656 3.828-1.656.703 0 1.344.156.656.156 1.219.453v2.719q-.625-.578-1.219-.844-.594-.281-1.219-.281-1.343 0-2.031 1.078-.687 1.062-.687 3.156t.687 3.172q.688 1.062 2.031 1.062.625 0 1.219-.265.594-.281 1.219-.86z"/><text x="572.5" y="232.36" fill="#D9B8FF" font-family="Helvetica" font-size="17" textLength="200">azure_public_ip_address</text><rect width="193" height="39.789" x="563" y="106.79" fill="#3D176E" rx="2.5" ry="2.5" style="stroke:#000d19;stroke-width:.5"/><circle cx="578" cy="126.684" r="11" fill="#ADD1B2" style="stroke:#181818;stroke-width:1"/><path d="M580.969 132.325q-.578.297-1.219.438-.64.156-1.344.156-2.5 0-3.828-1.64-1.312-1.657-1.312-4.782t1.312-4.781q1.328-1.656 3.828-1.656.703 0 1.344.156.656.156 1.219.453v2.719q-.625-.579-1.219-.844-.594-.281-1.219-.281-1.343 0-2.031 1.078-.687 1.062-.687 3.156t.687 3.172q.688 1.062 2.031 1.062.625 0 1.219-.265.594-.281 1.219-.86z"/><text x="597" y="132.57" fill="#D9B8FF" font-family="Helvetica" font-size="17" textLength="151">azure_virtual_hub</text><rect width="197" height="39.789" x="823" y="7" fill="#3D176E" rx="2.5" ry="2.5" style="stroke:#000d19;stroke-width:.5"/><circle cx="838" cy="26.895" r="11" fill="#ADD1B2" style="stroke:#181818;stroke-width:1"/><path d="M840.969 32.535q-.578.297-1.219.438-.64.156-1.344.156-2.5 0-3.828-1.64-1.312-1.657-1.312-4.782t1.312-4.781q1.328-1.656 3.828-1.656.703 0 1.344.156.656.156 1.219.453v2.719q-.625-.578-1.219-.844-.594-.281-1.219-.281-1.343 0-2.031 1.078-.687 1.062-.687 3.156t.687 3.172q.688 1.062 2.031 1.062.625 0 1.219-.265.594-.281 1.219-.86z"/><text x="857" y="32.78" fill="#D9B8FF" font-family="Helvetica" font-size="17" textLength="155">azure_virtual_wan</text><rect width="209" height="39.789" x="1055" y="7" fill="#3D176E" rx="2.5" ry="2.5" style="stroke:#000d19;stroke-width:.5"/><circle cx="1070" cy="26.895" r="11" fill="#ADD1B2" style="stroke:#181818;stroke-width:1"/><path d="M1072.969 32.535q-.578.297-1.219.438-.64.156-1.344.156-2.5 0-3.828-1.64-1.312-1.657-1.312-4.782t1.312-4.781q1.328-1.656 3.828-1.656.703 0 1.344.156.656.156 1.219.453v2.719q-.625-.578-1.219-.844-.594-.281-1.219-.281-1.343 0-2.031 1.078-.687 1.062-.687 3.156t.687 3.172q.688 1.062 2.031 1.062.625 0 1.219-.265.594-.281 1.219-.86z"/><text x="1089" y="32.78" fill="#D9B8FF" font-family="Helvetica" font-size="17" textLength="167">azure_vpn_gateway</text><path fill="none" d="M254.57 47.28C344 64.59 468.3 88.66 556.74 105.79" style="stroke:#1a83af;stroke-width:2"/><path fill="#1A83AF" d="m562.63 106.93-8.075-5.638 3.166 4.687-4.687 3.167z" style="stroke:#1a83af;stroke-width:2"/><path fill="none" d="M464.51 47.22c42.6 17.14 98.944 39.809 141.514 56.949" style="stroke:#1a83af;stroke-width:2"/><path fill="#1A83AF" d="m611.59 106.41-6.855-7.072 2.217 5.205-5.205 2.216z" style="stroke:#1a83af;stroke-width:2"/><path fill="none" d="M659.5 47.22v53.19" style="stroke:#1a83af;stroke-width:2"/><path fill="#1A83AF" d="m659.5 106.41 4-9-4 4-4-4z" style="stroke:#1a83af;stroke-width:2"/><path fill="none" d="M659.5 147.01v53.19" style="stroke:#1a83af;stroke-width:2"/><path fill="#1A83AF" d="m659.5 206.2 4-9-4 4-4-4z" style="stroke:#1a83af;stroke-width:2"/><path fill="none" d="M869.74 47.22c-45.93 17.14-107.07 39.95-152.96 57.09" style="stroke:#1a83af;stroke-width:2"/><path fill="#1A83AF" d="m711.16 106.41 9.83.598-5.146-2.347 2.347-5.147z" style="stroke:#1a83af;stroke-width:2"/><path fill="none" d="M1060.42 47.28c-88.26 17.26-210.732 41.208-298.272 58.328" style="stroke:#1a83af;stroke-width:2"/><path fill="#1A83AF" d="m756.26 106.76 9.6 2.198-4.693-3.158 3.158-4.693z" style="stroke:#1a83af;stroke-width:2"/></svg>
